X: 16913
T: Haunted Lighthouse, The
R: polka
M: 2/4
K: Aminor
|:GA ^GA|B/c/B/A/ G>E|^GA GA|B/c/B/A/ G>E|
GA ^GA|B/c/B/A/ G>A|^GA Be|1 dc/B/ A>E:|2 dc/B/ A>e||
|:de ed/e/|ge ed/e/|ge ed|eg e2|
de ed/e/|ge ed|e>a ed|1 cB A>e:|2 cB A>E||

